!!!OTL: GUTER FREUND ICH FRAGE DICH
!!!ARE: Europa, Mitteleuropa, Deutschland, Hessen, Unter - Taunus, Wuerges
!!!SCT: E2131
!!!YEM: Copyright 1995, estate of Helmut Schaffrath.
**kern
*ICvox
*Ivox
*M2/4
*k[b-e-]
*B-:
=1
{8.b-
16b-
8b-
8b-
=2
8.a
16g
4f}
=3
{8.g
16g
8g
8b-
=4
8.f
16e-
4d}
=5
{8.b-
16cc
8dd
8dd
=6
4cc
4b-}
=7
{8cc
8cc
8cc
8cc
=8
8.b-
16cc
4dd}
=9
{8b-
8b-
4ee-
=10
8cc
8cc
8dd}
{8b-
=11
8b-
8b-
8ee-
8cc
=12
4cc
8b-
8r}
==
!!!AGN: geistliches Lied, Curiosum
!!!ONB: ESAC (Essen Associative Code) Database: ERK3
!!!AMT: simple duple
!!!AIN: vox
!!!EED: Helmut Schaffrath
!!!EEV: 1.0
*-
